outputs/icons/file/cloud_outline_sharp.svg

<svg xmlns="http://www.w3.org/2000/svg" width="1200" height="1200" fill="none"><g clip-path="url(#a)"><path fill="#000" d="M967.5 502C933.5 329.5 782 200 600 200c-144.5 0-270 82-332.5 202C117 418 0 545.5 0 700c0 165.5 134.5 300 300 300h650c138 0 250-112 250-250 0-132-102.5-239-232.5-248M950 900H300c-110.5 0-200-89.5-200-200s89.5-200 200-200h35.5C368.5 384.5 474 300 600 300c152 0 275 123 275 275v25h75c83 0 150 67 150 150s-67 150-150 150"/></g><defs><clipPath id="a"><path fill="#fff" d="M0 0h1200v1200H0z"/></clipPath></defs></svg>

<svg width="1200" height="1200" viewBox="0 0 1200 1200" fill="none" xmlns="http://www.w3.org/2000/svg"><g clip-path="url(#clip0_124_963)"><path d="M967.5 502C933.5 329.5 782 200 600 200C455.5 200 330 282 267.5 402C117 418 0 545.5 0 700C0 865.5 134.5 1000 300 1000H950C1088 1000 1200 888 1200 750C1200 618 1097.5 511 967.5 502ZM950 900H300C189.5 900 100 810.5 100 700C100 589.5 189.5 500 300 500H335.5C368.5 384.5 474 300 600 300C752 300 875 423 875 575V600H950C1033 600 1100 667 1100 750C1100 833 1033 900 950 900Z" fill="black"/></g><defs><clipPath id="clip0_124_963"><path width="24" fill="white" d="M0 0H1200V1200H0V0z"/></clipPath></defs></svg>
